X: 39592
T: Teelin, The
R: reel
M: 4/4
K: Amixolydian
A3d|:(3Bcd e>g f>d e>A|(3Bcd e>f {a}g>f g>A|(3Bcd e>g f>d e>a|1 g>e d>B {AB}A2 A>G:|2 g>e d>B {AB}A2 A>^g||
a2 e>a f<d e>d|c>A {c}B>A c<e e>^g a2 e>a f<d e>a|g>e d>B A2 A>^g|
a2 e<a f<a e>a|c>A {c}B>A c<e e>^g|a2 e>a f<d f>a|g>e d>B {AB}A2 A>G|

